X: 22
T: New Scotch-measure
%R: _
B: "A Collection of Original Scotch-Tunes", Henry Playford, 1700, ed. p.9 #22
F: http://imslp.org/wiki/A_Collection_of_Original_Scotch_Tunes_(Various)
Z: 2015 John Chambers <jc:trillian.mit.edu>
M: none
L: 1/8
K: F
% - - - - - - - - - - - - - - - - - - - - - - - - - - - - -
(cB) |\
A2 (GF) f3 a | gfga ge dc | A2 GF b3 a | (gf)(ed) efga |\
fc Ac fgaf | bagf efge | fd gf edec | d2 f2 f2 ||
ef |\
gfga fedc | fd Bd ga gf | defd ga fg | e2 (c2 c2) AB |\
cA Bc defd | gd fg e2 (dc) | df AB GA Bc | A2 F2 F2 |]
% - - - - - - - - - - - - - - - - - - - - - - - - - - - - -

%%sep 1 1 500
%%sep 1 1 500

